!!!OTL: DE JAOR DAO WASKNE SINE BRUT
!!!ARE: Europa, Mitteleuropa, Deutschland, Westfalen
!!!SCT: E0896
!!!YEM: Copyright 1995, estate of Helmut Schaffrath.
**kern
*ICvox
*Ivox
*M2/4
*k[b-]
*F:
{16c
=1
8c
8f
8f
8f
=2
8e
8g
8f
8r}
=3
{8e
16g
16e
4f}
=4
{8g
8g
8g
8g
=5
8e
8d
8c
8r}
=6
{8d
16d
16e
8c
8r}
=7
{8d
16d
16e
8f
8d
=8
8c
8e
8f
16r}
==
!!!AGN: Ehestands - Lied, Klage +++ 262: Laenge angepasst. +++
!!!ONB: ESAC (Essen Associative Code) Database: ERK2
!!!AMT: simple duple
!!!AIN: vox
!!!EED: Helmut Schaffrath
!!!EEV: 1.0
*-
